X: 60
T: No_64_Opening_Song_of_Snake_Dance.krn
N: Derived from No_64_Opening_Song_of_Snake_Dance.krn
%%abc-version 2.0
%%abcx-abcm2ps-target-version 5.9.1 (29 Sep 2008)
%%abc-creator hum2abc beta
%%abcx-conversion-date 2019/03/15 08:27:55
%%humdrum-veritas 1657977297
%%humdrum-veritas-data 2247054557
%%linebreak <none>
%%barnumbers 0
L: 1/8
M: 2/4
K: G clef=bass
[K:clef=bass][M:2/4]EB,B,2 [I:setbarnb 2]| 
ED-D2 | 
B,A,- A,E, | 
[M:3/4]B,A,-A,2E,2 | 
E,4E,2 | 
E,4B,,2 | 
B,,4z2 | 
[M:2/4]E,E,D,2 | 
E,E,z2 | 
F,E,E,2 | 
E,4 | 
E,2z2 |]  



